optimized/20/solid/chat-bubble-left-right.svg

<svg xmlns="http://www.w3.org/2000/svg" viewBox="0 0 20 20">
  <path d="M3.50491 2.36515C5.30269 2.1243 7.13702 2 9 2C10.863 2 12.6973 2.1243 14.4951 2.36515C15.7418 2.53218 16.6741 3.4733 16.9298 4.6333C16.7425 4.59823 16.5501 4.57486 16.3531 4.5641C15.5739 4.52154 14.7894 4.5 14 4.5C13.2106 4.5 12.4261 4.52154 11.6469 4.5641C9.22913 4.69615 7.5 6.72739 7.5 8.99794V11.2377C7.5 12.6511 8.17008 13.9726 9.26042 14.8002L6.28033 17.7803C6.06583 17.9948 5.74324 18.059 5.46299 17.9429C5.18273 17.8268 5 17.5533 5 17.25V13.8073C4.49897 13.7588 4.00056 13.7013 3.50493 13.6349C2.0334 13.4377 1 12.1622 1 10.7211V5.27886C1 3.83785 2.03337 2.5623 3.50491 2.36515Z"/>
  <path d="M14 6C13.2379 6 12.4807 6.0208 11.7287 6.06187C10.1572 6.1477 9 7.47212 9 8.99794V11.2377C9 12.7565 10.1467 14.077 11.7102 14.1726C11.9238 14.1857 12.1379 14.1971 12.3524 14.2068C12.5526 14.216 12.7366 14.2973 12.8702 14.4309L15.2197 16.7803C15.4342 16.9948 15.7568 17.059 16.037 16.9429C16.3173 16.8268 16.5 16.5533 16.5 16.25V14.1795C17.9525 13.9847 19 12.7165 19 11.2648V8.99794C19 7.47212 17.8428 6.1477 16.2713 6.06187C15.5193 6.0208 14.7621 6 14 6Z"/>
</svg>

<svg xmlns="http://www.w3.org/2000/svg" viewBox="0 0 20 20" fill="currentColor" aria-hidden="true">
  <path d="M3.505 2.365A41.369 41.369 0 019 2c1.863 0 3.697.124 5.495.365 1.247.167 2.18 1.108 2.435 2.268a4.45 4.45 0 00-.577-.069 43.141 43.141 0 00-4.706 0C9.229 4.696 7.5 6.727 7.5 8.998v2.24c0 1.413.67 2.735 1.76 3.562l-2.98 2.98A.75.75 0 015 17.25v-3.443c-.501-.048-1-.106-1.495-.172C2.033 13.438 1 12.162 1 10.72V5.28c0-1.441 1.033-2.717 2.505-2.914z"/>
  <path d="M14 6c-.762 0-1.52.02-2.271.062C10.157 6.148 9 7.472 9 8.998v2.24c0 1.519 1.147 2.839 2.71 2.935.214.013.428.024.642.034.2.009.385.09.518.224l2.35 2.35a.75.75 0 001.28-.531v-2.07c1.453-.195 2.5-1.463 2.5-2.915V8.998c0-1.526-1.157-2.85-2.729-2.936A41.645 41.645 0 0014 6z"/>
</svg>
